images/other-seat3.svg

<svg width="81" height="76" viewBox="0 0 81 76" fill="none" xmlns="http://www.w3.org/2000/svg">
<path fill-rule="evenodd" clip-rule="evenodd" d="M24.658 61.2157H56.0818C72.0859 61.2157 66.986 51.688 73.2578 42.8776C75.3841 39.891 78.0298 40.8487 79.7698 37.0765C82.7954 30.5158 76.991 24.1499 70.2291 25.2828C64.1358 26.3022 61.8732 33.9017 60.078 39.706C39.883 34.499 40.2823 34.7652 20.532 39.7125C18.6524 33.9374 16.5001 26.9384 11.1341 25.4906C4.24548 23.637 -1.89321 29.9023 0.544739 36.6642C2.09645 40.9688 4.21626 39.8326 6.67044 42.1537C7.94947 43.3613 9.73816 48.4352 10.5952 50.4576C14.2277 59.018 13.7603 61.2157 24.658 61.2157Z" fill="white"/>
<path fill-rule="evenodd" clip-rule="evenodd" d="M8.25146 21.3418C12.9488 21.4912 16.0263 22.741 18.3376 25.0945C21.1489 27.9642 21.1684 30.4768 23.1291 33.8822C39.1332 31.3566 41.7205 30.6911 57.8284 33.999C59.6301 29.9444 60.815 24.6335 66.4895 22.3287C68.184 21.6405 67.9373 21.9586 69.3234 21.5691C69.4858 21.5236 70.5343 21.2282 70.6122 21.199C72.125 20.6601 71.6283 20.9783 72.5859 20.2998C68.9891 0.770254 55.8125 5.62342 50.2873 3.08159C39.3961 -1.93064 38.6138 -0.0835132 30.0242 3.34779C26.2358 4.86379 9.82266 1.83828 8.25796 21.3386L8.25146 21.3418Z" fill="white"/>
<path fill-rule="evenodd" clip-rule="evenodd" d="M16.4513 75.522C18.0615 73.5645 19.9183 69.6235 21.0188 66.2864L18.1491 65.1177C16.8311 64.7606 15.5619 64.5853 14.2471 64.3451C12.8317 68.5977 7.22869 75.8888 16.4481 75.5187L16.4513 75.522Z" fill="white"/>
<path fill-rule="evenodd" clip-rule="evenodd" d="M59.4678 65.8189C60.3865 68.6984 62.5907 75.561 66.0674 75.5902C72.6184 75.6454 66.9991 66.8545 66.3531 64.2672L59.4678 65.8189Z" fill="white"/>
</svg>

<svg width="81" height="76" fill="none" xmlns="http://www.w3.org/2000/svg"><path fill-rule="evenodd" clip-rule="evenodd" d="M24.658 61.216h31.424c16.004 0 10.904-9.528 17.176-18.338 2.126-2.987 4.772-2.03 6.512-5.801 3.025-6.561-2.779-12.927-9.54-11.794-6.094 1.02-8.357 8.619-10.152 14.423-20.195-5.207-19.796-4.94-39.546.006-1.88-5.775-4.032-12.774-9.398-14.221C4.245 23.637-1.893 29.902.544 36.664c1.552 4.305 3.672 3.169 6.126 5.49 1.28 1.207 3.068 6.281 3.925 8.304 3.633 8.56 3.165 10.758 14.063 10.758z" fill="#fff"/><path fill-rule="evenodd" clip-rule="evenodd" d="M8.251 21.342c4.698.15 7.775 1.399 10.087 3.753 2.81 2.87 2.83 5.382 4.791 8.787 16.004-2.525 18.591-3.19 34.7.117 1.801-4.055 2.986-9.366 8.66-11.67 1.695-.689 1.448-.37 2.834-.76a68.53 68.53 0 001.29-.37c1.512-.539 1.015-.22 1.973-.9C68.989.77 55.813 5.624 50.287 3.083c-10.89-5.013-11.673-3.166-20.263.266-3.788 1.516-20.201-1.51-21.766 17.99l-.007.004zm8.2 54.18c1.61-1.958 3.467-5.898 4.568-9.236l-2.87-1.168c-1.318-.357-2.587-.533-3.902-.773-1.415 4.253-7.018 11.544 2.201 11.174l.003.003zm43.017-9.703c.918 2.88 3.123 9.742 6.6 9.771 6.55.055.931-8.736.285-11.323l-6.885 1.552z" fill="#fff"/></svg>
